src/emblems/16/vcs-normal.svg

<svg xmlns="http://www.w3.org/2000/svg" viewBox="0 0 16 16">
 <path 
     style="fill:#2ecc71;fill-opacity:1;stroke:none" 
     d="M 8 1 A 7 7 0 0 0 1 8 A 7 7 0 0 0 8 15 A 7 7 0 0 0 15 8 A 7 7 0 0 0 8 1 z "
     />
 <path 
     style="fill:#ffffff;fill-opacity:1;stroke:none" 
     d="M 11.535156 4.4648438 L 7.2929688 8.7070312 L 4.4648438 5.8789062 L 3.0507812 7.2929688 L 5.8789062 10.121094 L 7.2929688 11.535156 L 12.949219 5.8789062 L 11.535156 4.4648438 z "
     />
</svg>

<svg version="1.1" viewBox="0 0 16 16" xmlns="http://www.w3.org/2000/svg">
 <path d="m8 1a7 7 0 0 0-7 7 7 7 0 0 0 7 7 7 7 0 0 0 7-7 7 7 0 0 0-7-7z" fill="#a3be8c"/>
 <path d="m11.535 4.4648-4.2422 4.2422-2.8281-2.8281-1.4141 1.4141 4.2422 4.2422 5.6563-5.6562-1.4141-1.4141z" fill="#fff"/>
</svg>
